lib/flags/bq-bo-bonaire.svg

<svg xmlns="http://www.w3.org/2000/svg" fill="none" aria-hidden="true" viewBox="0 0 42 30"><g id="Country=BQ-BO - Bonaire, Size=sm (36x24)" filter="url(#filter0_dd_91_29405)"><g clip-path="url(#clip0_91_29405)"><g id="flag"><mask id="mask0_91_29405" width="36" height="24" x="3" y="2" maskUnits="userSpaceOnUse" style="mask-type:alpha"><rect id="mask" width="36" height="24" x="3" y="2" fill="white"/></mask><g mask="url(#mask0_91_29405)"><g id="contents"><path id="bg" fill="white" fill-rule="evenodd" d="M3 2H39V26H3V2Z" clip-rule="evenodd"/><path id="Path 448" fill="#FEDA00" fill-rule="evenodd" d="M3 12.9333V2H21L3 12.9333Z" clip-rule="evenodd"/><path id="Path 451" fill="#00268D" fill-rule="evenodd" d="M3 26H39.0101V2L3 26Z" clip-rule="evenodd"/><g id="Combined Shape"><mask id="path-6-inside-1_91_29405" fill="white"><path fill-rule="evenodd" d="M13.5224 7L14.1152 8.13118C16.5293 8.3872 18.4099 10.1876 18.471 12.3894L19.545 12.8667L18.3716 13.3882C17.9513 15.2109 16.2629 16.6228 14.1617 16.8636L13.5225 18L12.8833 16.8636C10.7821 16.6228 9.09379 15.2109 8.67345 13.3882L7.5 12.8667L8.57408 12.3893C8.63488 10.1999 10.4949 8.40735 12.8895 8.13562L13.5224 7Z" clip-rule="evenodd"/></mask><path fill="white" fill-rule="evenodd" d="M13.5224 7L14.1152 8.13118C16.5293 8.3872 18.4099 10.1876 18.471 12.3894L19.545 12.8667L18.3716 13.3882C17.9513 15.2109 16.2629 16.6228 14.1617 16.8636L13.5225 18L12.8833 16.8636C10.7821 16.6228 9.09379 15.2109 8.67345 13.3882L7.5 12.8667L8.57408 12.3893C8.63488 10.1999 10.4949 8.40735 12.8895 8.13562L13.5224 7Z" clip-rule="evenodd"/><path fill="black" d="M14.1152 8.13118L13.4136 8.49877L13.6103 8.87408L14.0316 8.91877L14.1152 8.13118ZM13.5224 7L14.224 6.63241L13.544 5.33463L12.8306 6.61441L13.5224 7ZM18.471 12.3894L17.6793 12.4113L17.6932 12.9104L18.1493 13.1131L18.471 12.3894ZM19.545 12.8667L19.8667 13.5904L21.4951 12.8667L19.8667 12.143L19.545 12.8667ZM18.3716 13.3882L18.05 12.6645L17.6887 12.825L17.5999 13.2102L18.3716 13.3882ZM14.1617 16.8636L14.0715 16.0768L13.6697 16.1228L13.4714 16.4753L14.1617 16.8636ZM13.5225 18L12.8322 18.3883L13.5225 19.6155L14.2128 18.3883L13.5225 18ZM12.8833 16.8636L13.5736 16.4753L13.3753 16.1228L12.9735 16.0768L12.8833 16.8636ZM8.67345 13.3882L9.44519 13.2102L9.35636 12.825L8.99511 12.6645L8.67345 13.3882ZM7.5 12.8667L7.17834 12.1429L5.54993 12.8667L7.17834 13.5904L7.5 12.8667ZM8.57408 12.3893L8.89574 13.113L9.35191 12.9103L9.36577 12.4113L8.57408 12.3893ZM12.8895 8.13562L12.9788 8.92257L13.3831 8.87669L13.5813 8.52121L12.8895 8.13562ZM14.8167 7.7636L14.224 6.63241L12.8209 7.36759L13.4136 8.49877L14.8167 7.7636ZM19.2627 12.3674C19.1886 9.69653 16.9305 7.63331 14.1987 7.3436L14.0316 8.91877C16.128 9.14109 17.6312 10.6787 17.6793 12.4113L19.2627 12.3674ZM19.8667 12.143L18.7927 11.6656L18.1493 13.1131L19.2233 13.5904L19.8667 12.143ZM18.6933 14.1119L19.8667 13.5904L19.2233 12.143L18.05 12.6645L18.6933 14.1119ZM14.2519 17.6505C16.6372 17.3771 18.6372 15.7613 19.1434 13.5662L17.5999 13.2102C17.2654 14.6606 15.8885 15.8686 14.0715 16.0768L14.2519 17.6505ZM13.4714 16.4753L12.8322 17.6117L14.2128 18.3883L14.852 17.2519L13.4714 16.4753ZM14.2128 17.6117L13.5736 16.4753L12.193 17.2519L12.8322 18.3883L14.2128 17.6117ZM7.9017 13.5662C8.40792 15.7613 10.4078 17.3771 12.7931 17.6505L12.9735 16.0768C11.1565 15.8685 9.77965 14.6606 9.44519 13.2102L7.9017 13.5662ZM7.17834 13.5904L8.35178 14.1119L8.99511 12.6645L7.82166 12.1429L7.17834 13.5904ZM8.25241 11.6656L7.17834 12.1429L7.82166 13.5904L8.89574 13.113L8.25241 11.6656ZM12.8002 7.34867C10.0897 7.65624 7.85614 9.71157 7.78238 12.3673L9.36577 12.4113C9.41363 10.6883 10.9 9.15846 12.9788 8.92257L12.8002 7.34867ZM12.8306 6.61441L12.1977 7.75003L13.5813 8.52121L14.2142 7.38559L12.8306 6.61441Z" mask="url(#path-6-inside-1_91_29405)"/></g><path id="Path 450" fill="#F00A17" fill-rule="evenodd" d="M13.5477 10.3L12.8176 11.3891H11.3774L12.0955 12.5333L11.3774 13.6308H12.8176L13.5477 14.7505L14.289 13.6308H15.7162L15.0156 12.5333L15.7162 11.3891H14.289L13.5477 10.3Z" clip-rule="evenodd"/></g></g></g></g></g><defs><filter id="filter0_dd_91_29405" width="42" height="30" x="0" y="0" color-interpolation-filters="sRGB" filterUnits="userSpaceOnUse"><feFlood flood-opacity="0" result="BackgroundImageFix"/><feColorMatrix in="SourceAlpha" result="hardAlpha" values="0 0 0 0 0 0 0 0 0 0 0 0 0 0 0 0 0 0 127 0"/><feOffset dy="1"/><feGaussianBlur stdDeviation="1"/><feColorMatrix values="0 0 0 0 0.0627451 0 0 0 0 0.0941176 0 0 0 0 0.156863 0 0 0 0.06 0"/><feBlend in2="BackgroundImageFix" result="effect1_dropShadow_91_29405"/><feColorMatrix in="SourceAlpha" result="hardAlpha" values="0 0 0 0 0 0 0 0 0 0 0 0 0 0 0 0 0 0 127 0"/><feOffset dy="1"/><feGaussianBlur stdDeviation="1.5"/><feColorMatrix values="0 0 0 0 0.0627451 0 0 0 0 0.0941176 0 0 0 0 0.156863 0 0 0 0.1 0"/><feBlend in2="effect1_dropShadow_91_29405" result="effect2_dropShadow_91_29405"/><feBlend in="SourceGraphic" in2="effect2_dropShadow_91_29405" result="shape"/></filter><clipPath id="clip0_91_29405"><rect width="36" height="24" x="3" y="2" fill="white" rx="2"/></clipPath></defs></svg>

<svg xmlns="http://www.w3.org/2000/svg" fill="none" aria-hidden="true" viewBox="0 0 42 30"><g filter="url(#a)"><g clip-path="url(#b)"><mask id="c" width="36" height="24" x="3" y="2" maskUnits="userSpaceOnUse" style="mask-type:alpha"><path fill="#fff" d="M3 2h36v24H3z"/></mask><g mask="url(#c)"><path fill="#fff" fill-rule="evenodd" d="M3 2h36v24H3V2Z" clip-rule="evenodd"/><path fill="#FEDA00" fill-rule="evenodd" d="M3 12.933V2h18L3 12.933Z" clip-rule="evenodd"/><path fill="#00268D" fill-rule="evenodd" d="M3 26h36.01V2L3 26Z" clip-rule="evenodd"/><mask id="d" fill="#fff"><path fill-rule="evenodd" d="m13.522 7 .593 1.131c2.414.256 4.295 2.057 4.356 4.258l1.074.478-1.173.521c-.42 1.823-2.11 3.235-4.21 3.476L13.522 18l-.639-1.136c-2.1-.241-3.79-1.653-4.21-3.476L7.5 12.867l1.074-.478c.06-2.19 1.92-3.982 4.316-4.253L13.521 7Z" clip-rule="evenodd"/></mask><path fill="#fff" fill-rule="evenodd" d="m13.522 7 .593 1.131c2.414.256 4.295 2.057 4.356 4.258l1.074.478-1.173.521c-.42 1.823-2.11 3.235-4.21 3.476L13.522 18l-.639-1.136c-2.1-.241-3.79-1.653-4.21-3.476L7.5 12.867l1.074-.478c.06-2.19 1.92-3.982 4.316-4.253L13.521 7Z" clip-rule="evenodd"/><path fill="#000" d="m14.115 8.131-.701.368.196.375.422.045.083-.788ZM13.522 7l.702-.368-.68-1.297-.713 1.28.691.385Zm4.949 5.39-.792.021.014.5.456.202.322-.724Zm1.074.477.322.723 1.628-.723-1.628-.724-.322.724Zm-1.173.521-.322-.723-.361.16-.09.385.773.178Zm-4.21 3.476-.09-.787-.402.046-.199.352.69.389ZM13.522 18l-.69.388.69 1.227.69-1.227-.69-.388Zm-.639-1.136.69-.389-.198-.352-.402-.046-.09.787Zm-4.21-3.476.772-.178-.089-.385-.36-.16-.323.723ZM7.5 12.867l-.322-.724-1.628.724 1.628.723.322-.723Zm1.074-.478.322.724.456-.203.014-.499-.792-.022Zm4.316-4.253.089.787.404-.046.198-.356-.691-.385Zm1.927-.372-.593-1.132-1.403.736.593 1.13 1.403-.734Zm4.446 4.603c-.074-2.67-2.333-4.734-5.064-5.023l-.167 1.575c2.096.222 3.6 1.76 3.647 3.492l1.584-.044Zm.604-.224-1.074-.477-.644 1.447 1.074.477.644-1.447Zm-1.174 1.969 1.174-.522-.644-1.447-1.173.521.643 1.448Zm-4.441 3.539c2.385-.274 4.385-1.89 4.891-4.085L17.6 13.21c-.335 1.45-1.712 2.659-3.529 2.867l.18 1.573Zm-.78-1.176-.64 1.137 1.38.776.64-1.136-1.38-.777Zm.74 1.137-.638-1.137-1.381.777.64 1.136 1.38-.776Zm-6.31-4.046c.506 2.195 2.506 3.811 4.891 4.085l.18-1.574c-1.817-.209-3.193-1.416-3.528-2.867l-1.543.356Zm-.724.024 1.174.522.643-1.447-1.173-.522-.644 1.447Zm1.074-1.924-1.074.477.644 1.447 1.074-.477-.644-1.447ZM12.8 7.349c-2.71.307-4.944 2.363-5.018 5.018l1.584.044c.048-1.723 1.534-3.253 3.613-3.488L12.8 7.349Zm.03-.735-.632 1.136 1.383.771.633-1.135-1.383-.772Z" mask="url(#d)"/><path fill="#F00A17" fill-rule="evenodd" d="m13.548 10.3-.73 1.09h-1.44l.717 1.143-.718 1.098h1.44l.73 1.12.742-1.12h1.427l-.7-1.098.7-1.144H14.29l-.741-1.089Z" clip-rule="evenodd"/></g></g></g><defs><clipPath id="b"><rect width="36" height="24" x="3" y="2" fill="#fff" rx="2"/></clipPath><filter id="a" width="42" height="30" x="0" y="0" color-interpolation-filters="sRGB" filterUnits="userSpaceOnUse"><feFlood flood-opacity="0" result="BackgroundImageFix"/><feColorMatrix in="SourceAlpha" result="hardAlpha" values="0 0 0 0 0 0 0 0 0 0 0 0 0 0 0 0 0 0 127 0"/><feOffset dy="1"/><feGaussianBlur stdDeviation="1"/><feColorMatrix values="0 0 0 0 0.0627451 0 0 0 0 0.0941176 0 0 0 0 0.156863 0 0 0 0.06 0"/><feBlend in2="BackgroundImageFix" result="effect1_dropShadow_91_29405"/><feColorMatrix in="SourceAlpha" result="hardAlpha" values="0 0 0 0 0 0 0 0 0 0 0 0 0 0 0 0 0 0 127 0"/><feOffset dy="1"/><feGaussianBlur stdDeviation="1.5"/><feColorMatrix values="0 0 0 0 0.0627451 0 0 0 0 0.0941176 0 0 0 0 0.156863 0 0 0 0.1 0"/><feBlend in2="effect1_dropShadow_91_29405" result="effect2_dropShadow_91_29405"/><feBlend in="SourceGraphic" in2="effect2_dropShadow_91_29405" result="shape"/></filter></defs></svg>
